X: 20342
Q: "With energy and feeling."
M: C
L: 1/8
K: D
d3F (AG)(FE) | D4 z2d2 |\
d>B B4 d2 | d>A A4 d2 |\
c3c d3d | e3c A2A2 |\
d3d e3e | f3d A2 |: A2 |\
f3e gfed | B4 zBdB |\


